src/images/icons/thumbs_up.svg

<svg width="32px" height="32px" viewBox="0 0 32 32" version="1.1" xmlns="http://www.w3.org/2000/svg" xmlns:xlink="http://www.w3.org/1999/xlink">
  <title>thumbs_up</title>
  <g id="thumbs_up" stroke="none" stroke-width="1" fill="none" fill-rule="evenodd"><path d="M7.6875,14.25 C8.05208361,14.25 8.36197889,14.3776039 8.6171875,14.6328125 C8.87239611,14.8880211 9,15.1979164 9,15.5625 L9,28.6875 C9,29.0520836 8.87239611,29.3619789 8.6171875,29.6171875 C8.36197889,29.8723961 8.05208361,30 7.6875,30 L3.3125,30 C2.94791639,30 2.63802111,29.8723961 2.3828125,29.6171875 C2.12760389,29.3619789 2,29.0520836 2,28.6875 L2,15.5625 C2,15.1979164 2.12760389,14.8880211 2.3828125,14.6328125 C2.63802111,14.3776039 2.94791639,14.25 3.3125,14.25 L7.6875,14.25 Z M5.5,27.8125 C5.86458361,27.8125 6.17447889,27.6848961 6.4296875,27.4296875 C6.68489611,27.1744789 6.8125,26.8645836 6.8125,26.5 C6.8125,26.1354164 6.68489611,25.8255211 6.4296875,25.5703125 C6.17447889,25.3151039 5.86458361,25.1875 5.5,25.1875 C5.13541639,25.1875 4.82552111,25.3151039 4.5703125,25.5703125 C4.31510389,25.8255211 4.1875,26.1354164 4.1875,26.5 C4.1875,26.8645836 4.31510389,27.1744789 4.5703125,27.4296875 C4.82552111,27.6848961 5.13541639,27.8125 5.5,27.8125 Z M23,6.4296875 C23,7.0859375 22.890625,7.7421875 22.671875,8.3984375 C22.5260414,8.76302111 22.2708336,9.2734375 21.90625,9.9296875 C21.5052086,10.6953125 21.2682289,11.2604164 21.1953125,11.625 L26.71875,11.625 C27.6302086,11.625 28.4049476,11.9440101 29.0429688,12.5820312 C29.6809899,13.2200524 30,13.9583336 30,14.796875 C30,15.3072914 29.8997399,15.7994789 29.6992188,16.2734375 C29.4986976,16.7473961 29.2526039,17.1484375 28.9609375,17.4765625 L28.90625,17.4765625 C29.1979164,18.1692711 29.3072914,18.9166664 29.234375,19.71875 C29.1614586,20.5208336 28.8880211,21.2317711 28.4140625,21.8515625 C28.6328125,22.5442711 28.6510414,23.2734375 28.46875,24.0390625 C28.2864586,24.8046875 27.9765625,25.4427086 27.5390625,25.953125 C27.7578125,26.9010414 27.6302086,27.7213539 27.15625,28.4140625 C26.6822914,29.1067711 25.8072914,29.5625 24.53125,29.78125 C23.765625,29.9270836 22.5807289,30 20.9765625,30 L20.8125,30 C19.6458336,30 18.4427086,29.7994789 17.203125,29.3984375 C16.4739586,29.1796875 15.4804688,28.7877601 14.2226563,28.2226562 C12.9648438,27.6575524 12.0260414,27.375 11.40625,27.375 C11.2239586,27.375 11.0690101,27.3111976 10.9414062,27.1835938 C10.8138024,27.0559899 10.75,26.9010414 10.75,26.71875 L10.75,15.015625 C10.75,14.8333336 10.8229164,14.6875 10.96875,14.578125 C11.6979164,13.8125 12.5911461,12.6640625 13.6484375,11.1328125 C14.5234375,9.85677111 15.2526039,8.9453125 15.8359375,8.3984375 C16.2005211,8.03385389 16.4921875,7.54166639 16.7109375,6.921875 C16.8567711,6.55729139 17.0208336,5.97395861 17.203125,5.171875 L17.203125,5.1171875 C17.421875,4.27864611 17.6223961,3.640625 17.8046875,3.203125 C18.1692711,2.40104139 18.5885414,2 19.0625,2 C20.046875,2 20.8671875,2.23697889 21.5234375,2.7109375 C22.5078125,3.44010389 23,4.6796875 23,6.4296875 Z" id="t" fill="#000000" fill-rule="nonzero"></path></g>
</svg>

<svg width="32" height="32" xmlns="http://www.w3.org/2000/svg"><path d="M7.688 14.25c.364 0 .674.128.93.383.254.255.382.565.382.93v13.124c0 .365-.128.675-.383.93a1.266 1.266 0 0 1-.93.383H3.313c-.364 0-.674-.128-.93-.383a1.266 1.266 0 0 1-.382-.93V15.563c0-.364.128-.674.383-.93.255-.254.565-.382.93-.382h4.374zM5.5 27.813c.365 0 .674-.128.93-.383.255-.256.383-.565.383-.93 0-.365-.128-.674-.383-.93a1.266 1.266 0 0 0-.93-.383c-.365 0-.674.128-.93.383a1.266 1.266 0 0 0-.383.93c0 .365.128.674.383.93.256.255.565.383.93.383zM23 6.43c0 .656-.11 1.312-.328 1.968-.146.365-.401.875-.766 1.532-.4.765-.638 1.33-.71 1.695h5.523c.911 0 1.686.319 2.324.957.638.638.957 1.376.957 2.215 0 .51-.1 1.002-.3 1.476-.201.474-.447.875-.74 1.204h-.054c.292.692.401 1.44.328 2.242a4.04 4.04 0 0 1-.82 2.133c.219.692.237 1.421.055 2.187-.183.766-.492 1.404-.93 1.914.219.948.091 1.768-.383 2.461-.474.693-1.349 1.148-2.625 1.367-.765.146-1.95.219-3.554.219h-.165c-1.166 0-2.37-.2-3.609-.602-.729-.218-1.723-.61-2.98-1.175-1.258-.565-2.197-.848-2.817-.848a.633.633 0 0 1-.465-.191.633.633 0 0 1-.191-.465V15.016a.52.52 0 0 1 .219-.438c.729-.765 1.622-1.914 2.68-3.445.874-1.276 1.604-2.188 2.187-2.735.365-.364.656-.856.875-1.476.146-.365.31-.948.492-1.75v-.055c.219-.838.42-1.476.602-1.914.364-.802.784-1.203 1.258-1.203.984 0 1.804.237 2.46.71C22.508 3.44 23 4.68 23 6.43z" fill="#000" fill-rule="nonzero"/></svg>
